X:1
T:When Will the Blues Leave?
C:1958 - Ornette Coleman
Z:www.realbook.site
L:1/8
M:4/4
I:linebreak $
K:F
V:1 treble nm=" " snm=" "
V:1
 =B ||"F7" cccA _BBBG | AA A/F/G z2{/e} f2- | !-(!f2 _AF G=ABc | (3^GAG F_E z ^C (3DFB |$ %5
"Bb7" d2 d=c- c_EDE | c=B _B/F/_A- A2 z2 | z8 | z8 |$"Gm7" AG^FG BA^GA | %10
"C7" cC=B,C A_B/A/ ^G/A/B- | B4- BCEF |"F" z8 |] %13

